Papirus-GTK/24x24/apps/accessories-ebook-reader.svg

<svg height="24" viewBox="0 0 48 48.000001" width="24" xmlns="http://www.w3.org/2000/svg"><rect fill="#009688" height="44" rx="2" transform="scale(-1 1)" width="36" x="-42" y="2"/><rect fill="#009688" height="44" rx="2" width="36" x="6" y="2"/><path d="m4 1c-.554 0-1 .446-1 1v .5c0-.554.446-1 1-1h16c .554 0 1 .446 1 1v-.5c0-.554-.446-1-1-1z" fill="#fff" opacity=".2" transform="scale(2)"/><path d="m30 2v22l2-2h2l2 2v-22z" fill="#d8d8d8"/><path d="m8 2c-1.108 0-2 .892-2 2v40c0 1.108.892 2 2 2h4v-44z" opacity=".2"/><path d="m6 43v1c0 1.108.892 2 2 2h32c1.108 0 2-.892 2-2v-1c0 1.108-.892 2-2 2h-32c-1.108 0-2-.892-2-2z" opacity=".3"/></svg>

<?xml version="1.0" encoding="UTF-8" standalone="no"?>
<!-- Created with Inkscape (http://www.inkscape.org/) -->

<svg
   xmlns:dc="http://purl.org/dc/elements/1.1/"
   xmlns:cc="http://creativecommons.org/ns#"
   xmlns:rdf="http://www.w3.org/1999/02/22-rdf-syntax-ns#"
   xmlns:svg="http://www.w3.org/2000/svg"
   xmlns="http://www.w3.org/2000/svg"
   xmlns:sodipodi="http://sodipodi.sourceforge.net/DTD/sodipodi-0.dtd"
   xmlns:inkscape="http://www.inkscape.org/namespaces/inkscape"
   id="svg4211"
   height="24"
   width="24"
   version="1.1"
   viewBox="0 0 48 48.000001"
   inkscape:version="0.91 r13725"
   sodipodi:docname="accessories-ebook-reader.svg">
  <defs
     id="defs13" />
  <sodipodi:namedview
     pagecolor="#ffffff"
     bordercolor="#666666"
     borderopacity="1"
     objecttolerance="10"
     gridtolerance="10"
     guidetolerance="10"
     inkscape:pageopacity="0"
     inkscape:pageshadow="2"
     inkscape:window-width="1600"
     inkscape:window-height="845"
     id="namedview11"
     showgrid="false"
     inkscape:zoom="24.48"
     inkscape:cx="12"
     inkscape:cy="12"
     inkscape:window-x="0"
     inkscape:window-y="32"
     inkscape:window-maximized="1"
     inkscape:current-layer="svg4211" />
  <metadata
     id="metadata4216">
    <rdf:RDF>
      <cc:Work
         rdf:about="">
        <dc:format>image/svg+xml</dc:format>
        <dc:type
           rdf:resource="http://purl.org/dc/dcmitype/StillImage" />
        <dc:title></dc:title>
      </cc:Work>
    </rdf:RDF>
  </metadata>
  <rect
     style="opacity:1;fill:#009688;fill-opacity:1;stroke:none;stroke-width:8;stroke-linecap:round;stroke-linejoin:miter;stroke-miterlimit:4;stroke-dasharray:none;stroke-opacity:1"
     id="rect4480"
     width="36"
     height="44"
     x="-42"
     y="2"
     rx="2"
     ry="2"
     transform="scale(-1,1)" />
  <rect
     ry="2"
     rx="2"
     y="2"
     x="6"
     height="44"
     width="36"
     id="rect4482"
     style="opacity:1;fill:#009688;fill-opacity:1;stroke:none;stroke-width:8;stroke-linecap:round;stroke-linejoin:miter;stroke-miterlimit:4;stroke-dasharray:none;stroke-opacity:1" />
  <path
     style="opacity:0.2;fill:#ffffff;fill-opacity:1;stroke:none;stroke-width:8;stroke-linecap:round;stroke-linejoin:miter;stroke-miterlimit:4;stroke-dasharray:none;stroke-opacity:1"
     d="M 4 1 C 3.446 1 3 1.446 3 2 L 3 2.5 C 3 1.946 3.446 1.5 4 1.5 L 20 1.5 C 20.554 1.5 21 1.946 21 2.5 L 21 2 C 21 1.446 20.554 1 20 1 L 4 1 z "
     transform="scale(2,2)"
     id="rect4491" />
  <path
     style="display:inline;fill:#d8d8d8;fill-opacity:1;stroke:none;enable-background:new"
     d="m 30,2 0,22 2,-2 2,0 2,2 0,-22 z"
     id="path4505"
     inkscape:connector-curvature="0"
     sodipodi:nodetypes="ccccccc" />
  <path
     style="opacity:0.2;fill:#000000;fill-opacity:1;stroke:none;stroke-width:8;stroke-linecap:round;stroke-linejoin:miter;stroke-miterlimit:4;stroke-dasharray:none;stroke-opacity:1"
     d="M 8,2 C 6.892,2 6,2.892 6,4 l 0,40 c 0,1.108 0.892,2 2,2 l 4,0 0,-44 -4,0 z"
     id="rect4245"
     inkscape:connector-curvature="0" />
  <path
     style="opacity:0.3;fill:#000000;fill-opacity:1;stroke:none;stroke-width:8;stroke-linecap:round;stroke-linejoin:miter;stroke-miterlimit:4;stroke-dasharray:none;stroke-opacity:1"
     d="m 6,43 0,1 c 0,1.108 0.892,2 2,2 l 32,0 c 1.108,0 2,-0.892 2,-2 l 0,-1 c 0,1.108 -0.892,2 -2,2 L 8,45 C 6.892,45 6,44.108 6,43 Z"
     id="rect4489"
     inkscape:connector-curvature="0" />
</svg>
